X:552
T:Miss Monaghan
R:reel
H:See also #254
D:Arty McGlynn: McGlynn's Fancy
Z:id:hn-reel-552
M:C|
K:D
DFDG FAAF|GAAG FABc|dBAG FADf|(3gfe fd ecAF|
D2DG FAAF|GAAG FABc|defd ecdB|AFGE FDD2:|
faaf afdf|(3gfe fd edBc|~d3B AFDe|fedf ~e3g|
fa~a2 afdf|(3gfe fd edBc|defd ecdB|AFGE FDD2|
fa~a2 afdf|(3gfe fd edef|g2bg fgaf|gfed (3Bcd eg|
f2af bfaf|gefd edBc|defd ecdB|AFGE FDD2||
